!! 00000] TT[00
!! NN
!!!OTL: Shi li dun
!!!ARE: Asia, China, Hebei, Zhangbei, Nordwesten i.d. near  Shanxi und Menggu)
!! Ethnic Group: Han
!! IV, 64
!!!SCT: C0377
!!!YEM: Copyright 1995, estate of Helmut Schaffrath.
**kern
*ICvox
*Ivox
*M2/4
*k[b-]
*F:
{8f
8f
=1
8f
8f
16g
16g
16g
16g
=2
8cc
8d
4c
=3
8cc
8d
4c}
=4
{16.cc
32cc
16cc
16cc
16.b-
32cc
16ff
16dd
=5
4cc
4cc}
=6
{8.b-
16cc
8ff
8dd
=7
4cc
4cc}
=8
{16g
16a
16g
16f
8d
8f
=9
2g}
=10
{8.g
16a
4cc
=11
16a
16cc
16dd
16ff
8cc
8a
=12
4g
8.cc
16a
=13
8.f
16d
4c}
=14
{8.g
16a
8g
8f}
=15
{8g
16g
16a
8g
8f}
=16
{8g
16g
16a
8g
8f}
=17
{8g
16g
16a
8g
8f}
=18
{16g
16g
16g
16f#
16g
16g
16g
16f#
=19
8g
8a
16g
16g
16g
16g
=20
8cc
8d
8f
8f
=21
16.g
32f
16g
16cc
[4c
=22
4c]}
==
!!!AGN: Xiaodiao
!! Dise Weise ist typischer in der Provinz Shanxi
!!!ONB: ESAC (Essen Associative Code) Database: CHINA
!!!AMT: simple duple
!!!AIN: vox
!!!EED: Helmut Schaffrath
!!!EEV: 1.0
*-
!!!ONB: Tied note syntax fixed by Craig Sapp, 2004/05/03/
